!!!!SEGMENT: pl-wnifc--13846--001-078_anonim--piesni-polskie-i-ruskie-ludu-galicyjskiego-78-jichaw-kozak-za-dunaj.krn
!!!cenid: 18xx:3300
!!!COM: Anonim
!!!COM-rismID: pe30004985
!!!CDT:
!!!CNT:
!!!GTL: Pieśni polskie i ruskie ludu galicyjskiego
!!!OTL: 78. Jichaw kozak za dunaj
!!!OMV: 078
!!!PDT: 1833
!!!AGN:
!!!SMS-siglum: PL-Wnifc
!!!SMS-shelfmark: 13846
!!!SMS-shelfwork: 001-078 G
!!!SMS-variant:
!!!SMS-altvar:
!!!NIFC-rismSourceID: 1001036701
!!!NIFC-rismChildID: 1001037254
!!!NIFC-islandoraID: nifc:210326
!!!URL-pdf-islandora: https://repozytorium.nifc.pl/islandora/object/nifc%3A210326/datastream/PDF/view
!!!URL-scan:
!!!IIIF:
!!!ONB-nifc:
!!!OMD: Andante
!!!AIN: 1 piano 1 vox
!!!key: a
**kern	**kern	**kern	**text
*part2	*part2	*part1	*part1
*group2	*group2	*group1	*group1
*staff3	*staff2	*staff1	*staff1
*I"[FORTEPIAN.]	*I"[FORTEPIAN.]	*I"[GŁOS.]	*
*Ipiano	*Ipiano	*Ivox	*
*ICklav	*ICklav	*ICvox	*
*IGacmp	*IGacmp	*IGsolo	*
*clefF4	*clefG2	*clefG2	*
*k[]	*k[]	*k[]	*
*a:	*a:	*a:	*
*M4/4	*M4/4	*M4/4	*
*met(c)	*met(c)	*met(c)	*
=1-	=1-	=1-	=1-
!!LO:TX:t=P:problem:tekst: Pieśni polskie i ruskie ludu galicyjskiego, s. 234.
!	!	!LO:TX:a:B:t=E.37.	!
2A/ 2AA/	8a/L	4.a/	Ji-
.	(8c/	.	.
.	8e/)	.	.
.	8e/'J	8e/	-chaw
2A/ 2AA/	8a/'L	4.a/	ko-
.	(8c/	.	.
.	8e/)	.	.
.	8e/'J	8e/	-zak
=2	=2	=2	=2
2A/ 2AA/	8a/'L	4a\	za
.	8c/	.	.
.	(<8e/	4cc\	du-
.	8cc/J)	.	.
2r	(8d/L	(4b\	-naj
.	8b/)	.	.
.	(8c/	4a\)	.
.	8a/J)	.	.
!!linebreak:original
=3	=3	=3	=3
2E/ 2EE/	8g#X/'L	4.g#X/	ka-
.	(8B/	.	.
.	8e/)	.	.
.	8e/'J	8e/	-zaw
2E/ 2EE/	8g#/'L	4.g#/	diw-
.	(8B/	.	.
.	8e/)	.	.
.	8e/'J	8e/	-czy-
=4	=4	=4	=4
2E/ 2EE/	8g#X/L	4g#X/	-no
.	8B/	.	.
.	(<8d/	4b/	pra-
.	8b/J)	.	.
2r	(8c/L	(4a/	-szczaj
.	8a/)	.	.
.	(8B/	4g#/)	.
.	8g#/J)	.	.
=5	=5	=5	=5
2A/ 2E/ 2C/ 2AA/	8a/'L	4.a/	ty
.	(8c/	.	.
.	8e/)	.	.
.	8e/'J	8e/	ko-
2A/ 2E/ 2C/ 2AA/	8a/'L	4.a/	-ny-
.	(8c/	.	.
.	8e/)	.	.
.	8e/'J	8e/	-ku
!!linebreak:original
=6	=6	=6	=6
2A/ 2E/ 2C/ 2AA/	8a/L	4a\	wo-
.	8c/	.	.
.	(8e/	4cc\	-ro-
.	8cc/J)	.	.
2r	(8d/L	4b\	-ny-
.	8b/)	.	.
.	(8c/	4a\	-ku
.	8a/J)	.	.
=7	=7	=7	=7
2E/ 2EE/	8g#X/L	4.g#X/	na
.	(8B/	.	.
.	8d/	.	.
.	8g#/J)	8b/	sy-
2E/ 2EE/	8b\L	4.ee\	-łu
.	8g#\	.	.
.	8ee\	.	.
.	8g#\J	8g#/	hu-
=8	=8	=8	=8
4E/ 4AA/	8a\L	2a/	-laj
.	8cc\	.	.
4A/ 4AA/	8a\	.	.
.	8e\J	.	.
4A/ 4AA/	(8c/L	2r	.
.	8a/)	.	.
4G/ 4GG/	(8d/	.	.
.	8b/J)	.	.
!!linebreak:original
=9||	=9||	=9||	=9||
2C/ 2CC/	8cc\'L	4.cc\	wyj-
.	(8e\	.	.
.	8g\)	.	.
.	8g\'J	8g/	-szła
2C/ 2CC/	8cc\'L	4.cc\	rucz-
.	(8e\	.	.
.	8g\)	.	.
.	8g\'J	8g/	-ki
=10	=10	=10	=10
2C/ 2CC/	8cc\L	4cc\	za-
.	8e\	.	.
.	(8g\	4ee\	-ła-
.	8ee\J)	.	.
2r	(>8f\L	4dd\	-maw-
.	8dd\)	.	.
.	(8e\	4cc\	-szy
.	8cc\J)	.	.
=11	=11	=11	=11
2G/ 2GG/	8b/'L	4.b\	i
.	(8d/	.	.
.	8g/)	.	.
.	8g/'J	8g/	tia-
2G/ 2GG/	8b/'L	4.b\	-żeń-
.	(8d/	.	.
.	8g/)	.	.
.	8g/'J	8g/	-ko
!!pagebreak:original
=12	=12	=12	=12
*^	*	*	*
4G/ 4GG/	4ryy	(8b/L	4b\	za-
.	.	8d/)	.	.
4G#X/ 4GG#X/	4ryy	(8f/	4dd\	-pła-
.	.	8dd/J)	.	.
4A/ 4AA/	4ryy	(8e/L	4cc\	-kaw-
.	.	8cc/)	.	.
4G#X/	4E\	(8d/	4b\	-szy:
.	.	8b/J)	.	.
*v	*v	*	*	*
=13	=13	=13	=13
!	!	!LO:N:vis=4	!
4A/ 4E/ 4AA/	8a/L	4.a/	jak
.	(8c/	.	.
4r	8e/)	.	.
.	8g#X|/J	8g#X/	ty
4A/ 4E/ 4AA/	8a/L	4.a/	me-
.	(8c/	.	.
4r	8e/)	.	.
.	8g#|/J	8g#/	-ne
=14	=14	=14	=14
2A/ 2E/ 2AA/	8a|/L	4a\	po-
.	8c|/	.	.
.	(8e/	4cc\	-kie-
.	8cc/J)	.	.
2r	(8d/L	4b\	-da-
.	8b/)	.	.
.	(8c/	4a\	-jesz
.	8a/J)	.	.
!!linebreak:original
=15	=15	=15	=15
*^	*^	*	*
2.ryy	2E 2EE/	8g#X/L	8ryy	4.g#X/	no
.	.	8B/	4B\	.	.
.	.	(<8d/	.	.	.
.	.	8g#/J)	8ryy	8ee\	sam
.	2E 2EE/	8b\L	2ryy	4.ee\	po-
.	.	8g#X\	.	.	.
4d/ 4B/	.	8ee\	.	.	.
.	.	8g#\J	.	8g#/	-du-
*	*	*v	*v	*	*
=16	=16	=16	=16	=16
4c/ 4A/	8rAA	2a/	2a/	-maj.
.	(>8AA\L	.	.	.
2ryy	8C\	.	.	.
.	8E\J	.	.	.
.	4A\)	4ryy	4r	.
*v	*v	*	*	*
==	==	==	==
*-	*-	*-	*-
!!!system-decoration: g1{(g2)}
!!!RDF**kern: > = above
!!!RDF**kern: < = below
!!!RDF**kern: | = vertical stroke
!!!ENC: Katarzyna Serwa
!!!END: 2021-11-11
!!!YEC: Copyright 2022 Narodowy Instytut Fryderyka Chopina (https://polishscores.org)
!!!YEM: License CC-BY-4.0 (https://creativecommons.org/licenses/by/4.0)
